X:1077
T:Shady Grove
R:reel
S:Magnus Norrman
O:American
Z:id:hn-reel-1077
M:C|
L:1/8
K:Ador
EG | ABcA BAGB | ABAG E2EG | A2AA cAcd | e3g e2ec |
d2gd edgd | edBA G2GG | ABcA BAG2 | A3B A2 :|
|: Bc | d2gd edgd | edBA G2ef | gfga ged2 | e3g e2Bc |
d2gd edgd | edBA G2GG | ABcA BAG2 | A3B A2 :|

